!!! OTL: Berkowitz423
!!! Chapter: 1
!!! Section: IV
!!! Page: 105
!!! Mode: 
!!! Encoder: DJB
**kern
*staff1
*I"Piano
=1-
*clefG2
*k[b-e-a-]
*E-:
*M3/4
4r
4r
4b-\
=2
2an/
4b-\
=3
2f#/
4g/
=4
2d/
4e-/
=5
2B-/
8c/L
8d/J
=6
8e-/L
8d/J
8e-/L
8g/J
8cc\L
8b-\J
=7
8an/L
8g/J
8f/L
8ee-/J
8dd\L
8cc\J
=8
8b-/L
8g/J
8f/L
8e-/J
8d/L
8c/J
=9
2B-/
4b-\
=10
4.a-/
8f#/
4g/
=11
!!linebreak:original
4.f/
8d/
4e-/
=12
2d-/
4Bn/
=13
4c/
4r
8cc\L
8dd\J
=14
4b-\
4ee-\
4g/
=15
4b-\
4c/
4a-/
=16
4B-/
4g/
4f/
=17
2e-/
4r
==
*-
